src/lib/packages/icons/src/assets/filled/donut.svg

<svg width="24" height="24" viewBox="0 0 24 24" fill="none" xmlns="http://www.w3.org/2000/svg">
<path d="M20.73 7.12C20.7 7.27 20.65 7.41 20.53 7.53L19.53 8.53C19.38 8.68 19.19 8.75 19 8.75C18.81 8.75 18.62 8.68 18.47 8.53C18.18 8.24 18.18 7.76 18.47 7.47L19.47 6.47C19.67 6.27 19.95 6.21999 20.2 6.28999C18.39 3.69999 15.4 2 12 2C6.48 2 2 6.48 2 12C2 17.52 6.48 22 12 22C17.52 22 22 17.52 22 12C22 10.23 21.53 8.56999 20.73 7.12ZM4.53003 14.53C4.38003 14.68 4.19 14.75 4 14.75C3.81 14.75 3.61997 14.68 3.46997 14.53L2.46997 13.53C2.17997 13.24 2.17997 12.76 2.46997 12.47C2.75997 12.18 3.24003 12.18 3.53003 12.47L4.53003 13.47C4.82003 13.76 4.82003 14.24 4.53003 14.53ZM12.47 4.47C12.76 4.18 13.24 4.18 13.53 4.47L14.53 5.47C14.82 5.76 14.82 6.24 14.53 6.53C14.38 6.68 14.19 6.75 14 6.75C13.81 6.75 13.62 6.68 13.47 6.53L12.47 5.53C12.18 5.24 12.18 4.76 12.47 4.47ZM7.53003 8.53L6.53003 9.53C6.38003 9.68 6.19 9.75 6 9.75C5.81 9.75 5.61997 9.68 5.46997 9.53C5.17997 9.24 5.17997 8.76 5.46997 8.47L6.46997 7.47C6.75997 7.18 7.24003 7.18 7.53003 7.47C7.82003 7.76 7.82003 8.24 7.53003 8.53ZM11.53 18.53L10.53 19.53C10.38 19.68 10.19 19.75 10 19.75C9.81 19.75 9.61997 19.68 9.46997 19.53C9.17997 19.24 9.17997 18.76 9.46997 18.47L10.47 17.47C10.76 17.18 11.24 17.18 11.53 17.47C11.82 17.76 11.82 18.24 11.53 18.53ZM12 15.5C10.07 15.5 8.5 13.93 8.5 12C8.5 10.07 10.07 8.5 12 8.5C13.93 8.5 15.5 10.07 15.5 12C15.5 13.93 13.93 15.5 12 15.5ZM18.53 16.53C18.38 16.68 18.19 16.75 18 16.75C17.81 16.75 17.62 16.68 17.47 16.53L16.47 15.53C16.18 15.24 16.18 14.76 16.47 14.47C16.76 14.18 17.24 14.18 17.53 14.47L18.53 15.47C18.82 15.76 18.82 16.24 18.53 16.53Z" fill="currentColor"/>
</svg>

<svg xmlns="http://www.w3.org/2000/svg" width="24" height="24" fill="none"><path fill="currentColor" d="M20.73 7.12c-.03.15-.08.29-.2.41l-1 1c-.15.15-.34.22-.53.22s-.38-.07-.53-.22a.754.754 0 0 1 0-1.06l1-1c.2-.2.48-.25.73-.18C18.39 3.7 15.4 2 12 2 6.48 2 2 6.48 2 12s4.48 10 10 10 10-4.48 10-10c0-1.77-.47-3.43-1.27-4.88Zm-16.2 7.41c-.15.15-.34.22-.53.22s-.38-.07-.53-.22l-1-1a.754.754 0 0 1 0-1.06c.29-.29.77-.29 1.06 0l1 1c.29.29.29.77 0 1.06Zm7.94-10.06c.29-.29.77-.29 1.06 0l1 1c.29.29.29.77 0 1.06-.15.15-.34.22-.53.22s-.38-.07-.53-.22l-1-1a.754.754 0 0 1 0-1.06ZM7.53 8.53l-1 1c-.15.15-.34.22-.53.22s-.38-.07-.53-.22a.754.754 0 0 1 0-1.06l1-1c.29-.29.77-.29 1.06 0 .29.29.29.77 0 1.06Zm4 10-1 1c-.15.15-.34.22-.53.22s-.38-.07-.53-.22a.754.754 0 0 1 0-1.06l1-1c.29-.29.77-.29 1.06 0 .29.29.29.77 0 1.06ZM12 15.5c-1.93 0-3.5-1.57-3.5-3.5s1.57-3.5 3.5-3.5 3.5 1.57 3.5 3.5-1.57 3.5-3.5 3.5Zm6.53 1.03c-.15.15-.34.22-.53.22s-.38-.07-.53-.22l-1-1a.754.754 0 0 1 0-1.06c.29-.29.77-.29 1.06 0l1 1c.29.29.29.77 0 1.06Z"/></svg>
